symbols/web/contact_page/materialsymbolsoutlined/contact_page_grad200_24px.svg

<svg xmlns="http://www.w3.org/2000/svg" height="24" width="24"><path d="M12 13.575q.95 0 1.638-.688.687-.687.687-1.637t-.687-1.638Q12.95 8.925 12 8.925t-1.637.687q-.688.688-.688 1.638t.688 1.637q.687.688 1.637.688Zm-4.325 4.75h8.65v-.9q0-.7-.387-1.288-.388-.587-1.038-.862t-1.388-.438q-.737-.162-1.512-.162t-1.512.162Q9.75 15 9.1 15.275q-.65.275-1.038.862-.387.588-.387 1.288ZM18.1 22.8H5.9q-1.1 0-1.875-.775-.775-.775-.775-1.875V3.85q0-1.1.775-1.875Q4.8 1.2 5.9 1.2h8.4l6.45 6.45v12.5q0 1.1-.775 1.875-.775.775-1.875.775Zm0-2.65V8.8l-4.95-4.95H5.9v16.3Zm-12.2 0V3.85v16.3Z"/></svg>

<svg xmlns="http://www.w3.org/2000/svg" height="24" width="24"><path d="M12 13.575Q12.95 13.575 13.638 12.887Q14.325 12.2 14.325 11.25Q14.325 10.3 13.638 9.612Q12.95 8.925 12 8.925Q11.05 8.925 10.363 9.612Q9.675 10.3 9.675 11.25Q9.675 12.2 10.363 12.887Q11.05 13.575 12 13.575ZM7.675 18.325H16.325V17.425Q16.325 16.725 15.938 16.137Q15.55 15.55 14.9 15.275Q14.25 15 13.512 14.837Q12.775 14.675 12 14.675Q11.225 14.675 10.488 14.837Q9.75 15 9.1 15.275Q8.45 15.55 8.062 16.137Q7.675 16.725 7.675 17.425ZM18.1 22.8H5.9Q4.8 22.8 4.025 22.025Q3.25 21.25 3.25 20.15V3.85Q3.25 2.75 4.025 1.975Q4.8 1.2 5.9 1.2H14.3L20.75 7.65V20.15Q20.75 21.25 19.975 22.025Q19.2 22.8 18.1 22.8ZM18.1 20.15Q18.1 20.15 18.1 20.15Q18.1 20.15 18.1 20.15V8.8L13.15 3.85H5.9Q5.9 3.85 5.9 3.85Q5.9 3.85 5.9 3.85V20.15Q5.9 20.15 5.9 20.15Q5.9 20.15 5.9 20.15ZM5.9 20.15Q5.9 20.15 5.9 20.15Q5.9 20.15 5.9 20.15V3.85Q5.9 3.85 5.9 3.85Q5.9 3.85 5.9 3.85V8.8V20.15Q5.9 20.15 5.9 20.15Q5.9 20.15 5.9 20.15Z"/></svg>
